X: 1880
T: Arniston Castle
R: strathspey
M: 4/4
K: Amajor
a/|e>Ae>c A>ce>c|e>Ae>c e>B (3Bcd|e>Ae>c A>ce>c|d>fe>d c>AA>a|
e<Ae>c A>ce>c|e<Ae>c f>B (3Bcd|e<Ae>c e<Ae>c|d>fe>d c>AA3/2||
f/|e>ac>a d>gf>e|(3fga c>e f>BB>f|e>ac>a d>gf>e|(3fga e>d c>AA>f|
e>ac>a e>gf>d|(3fga c>e f>BB>f|a>ef>d (3cde a>e|f>d (3Bcd c>AA3/2||

